Newaita-dark/.places-mint/24/user-desktop.svg

<?xml version="1.0" encoding="UTF-8"?>
<svg xmlns="http://www.w3.org/2000/svg" xmlns:xlink="http://www.w3.org/1999/xlink" width="24px" height="24px" viewBox="0 0 24 24" version="1.1">
<defs>
<linearGradient id="linear0" gradientUnits="userSpaceOnUse" x1="254" y1="233.5" x2="254" y2="254.666672" gradientTransform="matrix(0.0468795,0,0,0.0468795,-0.0000028613,10.079089)">
<stop offset="0" style="stop-color:rgb(0%,0%,0%);stop-opacity:0.27451;"/>
<stop offset="1" style="stop-color:rgb(0%,0%,0%);stop-opacity:0;"/>
</linearGradient>
<radialGradient id="radial0" gradientUnits="userSpaceOnUse" cx="450.908936" cy="189.579361" fx="450.908936" fy="189.579361" r="21.166656" gradientTransform="matrix(0.000000130628,-0.0585994,-0.105479,-0.0000000761539,40.58641,47.696499)">
<stop offset="0" style="stop-color:rgb(0%,0%,0%);stop-opacity:0.313726;"/>
<stop offset="0.222222" style="stop-color:rgb(0%,0%,0%);stop-opacity:0.27451;"/>
<stop offset="1" style="stop-color:rgb(0%,0%,0%);stop-opacity:0;"/>
</radialGradient>
<radialGradient id="radial1" gradientUnits="userSpaceOnUse" cx="450.908936" cy="189.579361" fx="450.908936" fy="189.579361" r="21.166656" gradientTransform="matrix(-0.000000130628,0.0585994,0.105479,0.0000000761539,-16.771633,-5.645609)">
<stop offset="0" style="stop-color:rgb(0%,0%,0%);stop-opacity:0.313726;"/>
<stop offset="0.222222" style="stop-color:rgb(0%,0%,0%);stop-opacity:0.27451;"/>
<stop offset="1" style="stop-color:rgb(0%,0%,0%);stop-opacity:0;"/>
</radialGradient>
<radialGradient id="radial2" gradientUnits="userSpaceOnUse" cx="450.908936" cy="189.579361" fx="450.908936" fy="189.579361" r="21.166656" gradientTransform="matrix(-0.000000130628,-0.0585994,0.105479,-0.0000000761539,-16.771633,47.696499)">
<stop offset="0" style="stop-color:rgb(0%,0%,0%);stop-opacity:0.313726;"/>
<stop offset="0.222222" style="stop-color:rgb(0%,0%,0%);stop-opacity:0.27451;"/>
<stop offset="1" style="stop-color:rgb(0%,0%,0%);stop-opacity:0;"/>
</radialGradient>
<radialGradient id="radial3" gradientUnits="userSpaceOnUse" cx="450.908936" cy="189.579361" fx="450.908936" fy="189.579361" r="21.166656" gradientTransform="matrix(0.000000130628,0.0585994,-0.105479,0.0000000761539,40.586408,-5.64561)">
<stop offset="0" style="stop-color:rgb(0%,0%,0%);stop-opacity:0.313726;"/>
<stop offset="0.222222" style="stop-color:rgb(0%,0%,0%);stop-opacity:0.27451;"/>
<stop offset="1" style="stop-color:rgb(0%,0%,0%);stop-opacity:0;"/>
</radialGradient>
<linearGradient id="linear1" gradientUnits="userSpaceOnUse" x1="254" y1="233.5" x2="254" y2="-168.666656" gradientTransform="matrix(0.0468795,0,0,0.0468795,0,10.079087)">
<stop offset="0" style="stop-color:rgb(34.509805%,34.509805%,34.509805%);stop-opacity:0;"/>
<stop offset="1" style="stop-color:rgb(98.039216%,98.039216%,98.039216%);stop-opacity:0.196078;"/>
</linearGradient>
<linearGradient id="linear2" gradientUnits="userSpaceOnUse" x1="1040" y1="1695.118164" x2="1040" y2="1455.118164" gradientTransform="matrix(1,0,0,1,-0.00000251969,-0)">
<stop offset="0" style="stop-color:rgb(34.509805%,34.509805%,34.509805%);stop-opacity:0;"/>
<stop offset="1" style="stop-color:rgb(98.039216%,98.039216%,98.039216%);stop-opacity:0.196078;"/>
</linearGradient>
</defs>
<g id="surface1">
<path style=" stroke:none;fill-rule:nonzero;fill:url(#linear0);" d="M 2.976562 21.027344 L 20.839844 21.027344 L 20.839844 22.019531 L 2.976562 22.019531 Z M 2.976562 21.027344 "/>
<path style=" stroke:none;fill-rule:nonzero;fill:url(#radial0);" d="M 20.839844 21.027344 L 22.824219 21.027344 L 22.824219 20.03125 L 20.839844 20.03125 Z M 20.839844 21.027344 "/>
<path style=" stroke:none;fill-rule:nonzero;fill:url(#radial1);" d="M 2.976562 21.027344 L 0.992188 21.027344 L 0.992188 22.019531 L 2.976562 22.019531 Z M 2.976562 21.027344 "/>
<path style=" stroke:none;fill-rule:nonzero;fill:url(#radial2);" d="M 2.976562 21.027344 L 0.992188 21.027344 L 0.992188 20.03125 L 2.976562 20.03125 Z M 2.976562 21.027344 "/>
<path style=" stroke:none;fill-rule:nonzero;fill:url(#radial3);" d="M 20.839844 21.027344 L 22.824219 21.027344 L 22.824219 22.019531 L 20.839844 22.019531 Z M 20.839844 21.027344 "/>
<path style=" stroke:none;fill-rule:nonzero;fill:rgb(25.882354%,25.882354%,25.882354%);fill-opacity:1;" d="M 1.488281 2.171875 L 22.328125 2.171875 C 22.875 2.171875 23.320312 2.617188 23.320312 3.164062 L 23.320312 20.03125 C 23.320312 20.582031 22.875 21.027344 22.328125 21.027344 L 1.488281 21.027344 C 0.941406 21.027344 0.496094 20.582031 0.496094 20.03125 L 0.496094 3.164062 C 0.496094 2.617188 0.941406 2.171875 1.488281 2.171875 Z M 1.488281 2.171875 "/>
<path style=" stroke:none;fill-rule:nonzero;fill:url(#linear1);" d="M 1.488281 2.171875 L 22.328125 2.171875 C 22.875 2.171875 23.320312 2.617188 23.320312 3.164062 L 23.320312 20.03125 C 23.320312 20.582031 22.875 21.027344 22.328125 21.027344 L 1.488281 21.027344 C 0.941406 21.027344 0.496094 20.582031 0.496094 20.03125 L 0.496094 3.164062 C 0.496094 2.617188 0.941406 2.171875 1.488281 2.171875 Z M 1.488281 2.171875 "/>
<path style=" stroke:none;fill-rule:nonzero;fill:rgb(90.196079%,90.196079%,90.196079%);fill-opacity:0.392157;" d="M 1.488281 2.230469 C 0.9375 2.230469 0.496094 2.675781 0.496094 3.222656 L 0.496094 3.347656 C 0.496094 2.796875 0.9375 2.355469 1.488281 2.355469 L 22.328125 2.355469 C 22.875 2.355469 23.320312 2.796875 23.320312 3.347656 L 23.320312 3.222656 C 23.320312 2.675781 22.875 2.230469 22.328125 2.230469 Z M 1.488281 2.230469 "/>
<path style=" stroke:none;fill-rule:nonzero;fill:rgb(12.941177%,12.941177%,12.941177%);fill-opacity:1;" d="M 1.488281 2.101562 C 0.902344 2.101562 0.425781 2.578125 0.425781 3.164062 L 0.425781 20.03125 C 0.425781 20.621094 0.902344 21.097656 1.488281 21.097656 L 22.328125 21.097656 C 22.914062 21.097656 23.390625 20.621094 23.390625 20.03125 L 23.390625 3.164062 C 23.390625 2.578125 22.914062 2.101562 22.328125 2.101562 Z M 1.488281 2.242188 L 22.328125 2.242188 C 22.839844 2.242188 23.25 2.652344 23.25 3.164062 L 23.25 20.03125 C 23.25 20.546875 22.839844 20.957031 22.328125 20.957031 L 1.488281 20.957031 C 0.976562 20.957031 0.566406 20.546875 0.566406 20.03125 L 0.566406 3.164062 C 0.566406 2.652344 0.976562 2.242188 1.488281 2.242188 Z M 1.488281 2.242188 "/>
<path style=" stroke:none;fill-rule:nonzero;fill:rgb(68.235296%,83.529413%,50.588238%);fill-opacity:1;" d="M 4.960938 18.046875 C 4.410156 18.046875 3.96875 18.492188 3.96875 19.039062 L 3.96875 21.027344 L 19.84375 21.027344 L 19.84375 19.039062 C 19.84375 18.492188 19.402344 18.046875 18.851562 18.046875 Z M 4.960938 18.046875 "/>
<path style=" stroke:none;fill-rule:nonzero;fill:rgb(0%,0%,0%);fill-opacity:0.196078;" d="M 1.488281 20.964844 C 0.9375 20.964844 0.496094 20.519531 0.496094 19.972656 L 0.496094 19.847656 C 0.496094 20.398438 0.9375 20.839844 1.488281 20.839844 L 22.328125 20.839844 C 22.875 20.839844 23.320312 20.398438 23.320312 19.847656 L 23.320312 19.972656 C 23.320312 20.519531 22.875 20.964844 22.328125 20.964844 Z M 1.488281 20.964844 "/>
<path style=" stroke:none;fill-rule:nonzero;fill:rgb(90.196079%,90.196079%,90.196079%);fill-opacity:0.392157;" d="M 4.960938 18.121094 C 4.410156 18.121094 3.96875 18.5625 3.96875 19.113281 L 3.96875 19.238281 C 3.96875 18.6875 4.410156 18.246094 4.960938 18.246094 L 18.851562 18.246094 C 19.402344 18.246094 19.84375 18.6875 19.84375 19.238281 L 19.84375 19.113281 C 19.84375 18.5625 19.402344 18.121094 18.851562 18.121094 Z M 4.960938 18.121094 "/>
<path style="fill-rule:nonzero;fill:url(#linear2);stroke-width:11.338583;stroke-linecap:round;stroke-linejoin:miter;stroke:rgb(12.941177%,12.941177%,12.941177%);stroke-opacity:1;stroke-miterlimit:4;" d="M 399.961827 1454.979243 C 355.556616 1454.979243 319.969461 1490.881328 319.969461 1534.971608 L 319.969461 1695.27127 L 1599.847306 1695.27127 L 1599.847306 1534.971608 C 1599.847306 1490.881328 1564.260152 1454.979243 1519.854941 1454.979243 Z M 399.961827 1454.979243 " transform="matrix(0.0124035,0,0,0.0124035,0,0)"/>
<path style=" stroke:none;fill-rule:nonzero;fill:rgb(54.509807%,76.47059%,29.019609%);fill-opacity:1;" d="M 5.457031 19.039062 C 5.183594 19.039062 4.960938 19.261719 4.960938 19.535156 C 4.960938 19.8125 5.183594 20.03125 5.457031 20.03125 C 5.730469 20.03125 5.953125 19.8125 5.953125 19.535156 C 5.953125 19.261719 5.730469 19.039062 5.457031 19.039062 Z M 7.441406 19.039062 C 7.167969 19.039062 6.945312 19.261719 6.945312 19.535156 C 6.945312 19.8125 7.167969 20.03125 7.441406 20.03125 C 7.71875 20.03125 7.9375 19.8125 7.9375 19.535156 C 7.9375 19.261719 7.71875 19.039062 7.441406 19.039062 Z M 9.425781 19.039062 C 9.152344 19.039062 8.929688 19.261719 8.929688 19.535156 C 8.929688 19.8125 9.152344 20.03125 9.425781 20.03125 C 9.703125 20.03125 9.921875 19.8125 9.921875 19.535156 C 9.921875 19.261719 9.703125 19.039062 9.425781 19.039062 Z M 18.355469 19.039062 C 18.082031 19.039062 17.859375 19.261719 17.859375 19.535156 C 17.859375 19.8125 18.082031 20.03125 18.355469 20.03125 C 18.632812 20.03125 18.851562 19.8125 18.851562 19.535156 C 18.851562 19.261719 18.632812 19.039062 18.355469 19.039062 Z M 18.355469 19.039062 "/>
<path style=" stroke:none;fill-rule:nonzero;fill:rgb(0%,0%,0%);fill-opacity:0.235294;" d="M 5.457031 19.039062 C 5.183594 19.039062 4.960938 19.261719 4.960938 19.535156 C 4.960938 19.570312 4.964844 19.601562 4.96875 19.628906 C 5.011719 19.398438 5.214844 19.226562 5.457031 19.226562 C 5.699219 19.226562 5.902344 19.398438 5.945312 19.628906 C 5.949219 19.601562 5.953125 19.570312 5.953125 19.535156 C 5.953125 19.261719 5.730469 19.039062 5.457031 19.039062 Z M 7.441406 19.039062 C 7.167969 19.039062 6.945312 19.261719 6.945312 19.535156 C 6.945312 19.570312 6.949219 19.601562 6.953125 19.628906 C 7 19.398438 7.199219 19.226562 7.441406 19.226562 C 7.683594 19.226562 7.886719 19.398438 7.929688 19.628906 C 7.933594 19.601562 7.9375 19.570312 7.9375 19.535156 C 7.9375 19.261719 7.71875 19.039062 7.441406 19.039062 Z M 9.425781 19.039062 C 9.152344 19.039062 8.929688 19.261719 8.929688 19.535156 C 8.929688 19.570312 8.933594 19.601562 8.9375 19.628906 C 8.984375 19.398438 9.183594 19.226562 9.425781 19.226562 C 9.667969 19.226562 9.871094 19.398438 9.914062 19.628906 C 9.917969 19.601562 9.921875 19.570312 9.921875 19.535156 C 9.921875 19.261719 9.703125 19.039062 9.425781 19.039062 Z M 18.355469 19.039062 C 18.082031 19.039062 17.859375 19.261719 17.859375 19.535156 C 17.859375 19.570312 17.863281 19.601562 17.871094 19.628906 C 17.914062 19.398438 18.113281 19.226562 18.355469 19.226562 C 18.601562 19.226562 18.800781 19.398438 18.84375 19.628906 C 18.851562 19.601562 18.851562 19.570312 18.851562 19.535156 C 18.851562 19.261719 18.632812 19.039062 18.355469 19.039062 Z M 18.355469 19.039062 "/>
<path style=" stroke:none;fill-rule:nonzero;fill:rgb(100%,100%,100%);fill-opacity:0.392157;" d="M 4.96875 19.628906 C 4.964844 19.660156 4.960938 19.691406 4.960938 19.722656 C 4.960938 19.996094 5.183594 20.21875 5.457031 20.21875 C 5.730469 20.21875 5.953125 19.996094 5.953125 19.722656 C 5.953125 19.691406 5.949219 19.660156 5.945312 19.628906 C 5.902344 19.859375 5.699219 20.03125 5.457031 20.03125 C 5.214844 20.03125 5.011719 19.859375 4.96875 19.628906 Z M 6.953125 19.628906 C 6.949219 19.660156 6.945312 19.691406 6.945312 19.722656 C 6.945312 19.996094 7.167969 20.21875 7.441406 20.21875 C 7.71875 20.21875 7.9375 19.996094 7.9375 19.722656 C 7.9375 19.691406 7.933594 19.660156 7.929688 19.628906 C 7.886719 19.859375 7.683594 20.03125 7.441406 20.03125 C 7.199219 20.03125 7 19.859375 6.953125 19.628906 Z M 8.9375 19.628906 C 8.933594 19.660156 8.929688 19.691406 8.929688 19.722656 C 8.929688 19.996094 9.152344 20.21875 9.425781 20.21875 C 9.703125 20.21875 9.921875 19.996094 9.921875 19.722656 C 9.921875 19.691406 9.917969 19.660156 9.914062 19.628906 C 9.871094 19.859375 9.667969 20.03125 9.425781 20.03125 C 9.183594 20.03125 8.984375 19.859375 8.9375 19.628906 Z M 17.871094 19.628906 C 17.863281 19.660156 17.859375 19.691406 17.859375 19.722656 C 17.859375 19.996094 18.082031 20.21875 18.355469 20.21875 C 18.632812 20.21875 18.851562 19.996094 18.851562 19.722656 C 18.851562 19.691406 18.851562 19.660156 18.84375 19.628906 C 18.800781 19.859375 18.601562 20.03125 18.355469 20.03125 C 18.113281 20.03125 17.914062 19.859375 17.871094 19.628906 Z M 17.871094 19.628906 "/>
<path style="fill:none;stroke-width:11.338583;stroke-linecap:round;stroke-linejoin:miter;stroke:rgb(12.941177%,12.941177%,12.941177%);stroke-opacity:1;stroke-miterlimit:4;" d="M 439.958009 1534.971608 C 417.912869 1534.971608 399.961827 1552.922651 399.961827 1574.967791 C 399.961827 1597.327862 417.912869 1614.963974 439.958009 1614.963974 C 462.003149 1614.963974 479.954192 1597.327862 479.954192 1574.967791 C 479.954192 1552.922651 462.003149 1534.971608 439.958009 1534.971608 Z M 599.94274 1534.971608 C 577.8976 1534.971608 559.946557 1552.922651 559.946557 1574.967791 C 559.946557 1597.327862 577.8976 1614.963974 599.94274 1614.963974 C 622.30281 1614.963974 639.938923 1597.327862 639.938923 1574.967791 C 639.938923 1552.922651 622.30281 1534.971608 599.94274 1534.971608 Z M 759.927471 1534.971608 C 737.88233 1534.971608 719.931288 1552.922651 719.931288 1574.967791 C 719.931288 1597.327862 737.88233 1614.963974 759.927471 1614.963974 C 782.287541 1614.963974 799.923653 1597.327862 799.923653 1574.967791 C 799.923653 1552.922651 782.287541 1534.971608 759.927471 1534.971608 Z M 1479.858758 1534.971608 C 1457.813618 1534.971608 1439.862576 1552.922651 1439.862576 1574.967791 C 1439.862576 1597.327862 1457.813618 1614.963974 1479.858758 1614.963974 C 1502.218829 1614.963974 1519.854941 1597.327862 1519.854941 1574.967791 C 1519.854941 1552.922651 1502.218829 1534.971608 1479.858758 1534.971608 Z M 1479.858758 1534.971608 " transform="matrix(0.0124035,0,0,0.0124035,0,0)"/>
</g>
</svg>

<svg xmlns="http://www.w3.org/2000/svg" width="24" height="24"><defs><linearGradient id="a" gradientUnits="userSpaceOnUse" x1="254" y1="233.5" x2="254" y2="254.667" gradientTransform="matrix(.04688 0 0 .04688 0 10.08)"><stop offset="0" stop-opacity=".275"/><stop offset="1" stop-opacity="0"/></linearGradient><radialGradient id="b" gradientUnits="userSpaceOnUse" cx="450.909" cy="189.579" fx="450.909" fy="189.579" r="21.167" gradientTransform="matrix(0 -.0586 -.10548 0 40.586 47.696)"><stop offset="0" stop-opacity=".314"/><stop offset=".222" stop-opacity=".275"/><stop offset="1" stop-opacity="0"/></radialGradient><radialGradient id="c" gradientUnits="userSpaceOnUse" cx="450.909" cy="189.579" fx="450.909" fy="189.579" r="21.167" gradientTransform="matrix(0 .0586 .10548 0 -16.772 -5.646)"><stop offset="0" stop-opacity=".314"/><stop offset=".222" stop-opacity=".275"/><stop offset="1" stop-opacity="0"/></radialGradient><radialGradient id="d" gradientUnits="userSpaceOnUse" cx="450.909" cy="189.579" fx="450.909" fy="189.579" r="21.167" gradientTransform="matrix(0 -.0586 .10548 0 -16.772 47.696)"><stop offset="0" stop-opacity=".314"/><stop offset=".222" stop-opacity=".275"/><stop offset="1" stop-opacity="0"/></radialGradient><radialGradient id="e" gradientUnits="userSpaceOnUse" cx="450.909" cy="189.579" fx="450.909" fy="189.579" r="21.167" gradientTransform="matrix(0 .0586 -.10548 0 40.586 -5.646)"><stop offset="0" stop-opacity=".314"/><stop offset=".222" stop-opacity=".275"/><stop offset="1" stop-opacity="0"/></radialGradient><linearGradient id="f" gradientUnits="userSpaceOnUse" x1="254" y1="233.5" x2="254" y2="-168.667" gradientTransform="matrix(.04688 0 0 .04688 0 10.08)"><stop offset="0" stop-color="#585858" stop-opacity="0"/><stop offset="1" stop-color="#fafafa" stop-opacity=".196"/></linearGradient><linearGradient id="g" gradientUnits="userSpaceOnUse" x1="1040" y1="1695.118" x2="1040" y2="1455.118"><stop offset="0" stop-color="#585858" stop-opacity="0"/><stop offset="1" stop-color="#fafafa" stop-opacity=".196"/></linearGradient><linearGradient id="h" gradientUnits="userSpaceOnUse" x1="960" y1="1455.118" x2="960" y2="1695.118" gradientTransform="matrix(.26458 0 0 .26458 0 -215)"><stop offset="0" stop-color="#585858" stop-opacity="0"/><stop offset="1" stop-color="#fafafa" stop-opacity=".196"/></linearGradient></defs><path d="M2.977 21.027H20.84v.993H2.977zm0 0" fill="url(#a)"/><path d="M20.84 21.027h1.984v-.996H20.84zm0 0" fill="url(#b)"/><path d="M2.977 21.027H.992v.993h1.985zm0 0" fill="url(#c)"/><path d="M2.977 21.027H.992v-.996h1.985zm0 0" fill="url(#d)"/><path d="M20.84 21.027h1.984v.993H20.84zm0 0" fill="url(#e)"/><path d="M1.488 2.172h20.84c.547 0 .992.445.992.992v16.867c0 .551-.445.996-.992.996H1.488a.994.994 0 0 1-.992-.996V3.164c0-.547.445-.992.992-.992zm0 0" fill="#424242"/><path d="M1.488 2.172h20.84c.547 0 .992.445.992.992v16.867c0 .551-.445.996-.992.996H1.488a.994.994 0 0 1-.992-.996V3.164c0-.547.445-.992.992-.992zm0 0" fill="url(#f)"/><path d="M1.488 2.23a.991.991 0 0 0-.992.993v.125c0-.551.442-.993.992-.993h20.84c.547 0 .992.442.992.993v-.125a.994.994 0 0 0-.992-.993zm0 0" fill="#e6e6e6" fill-opacity=".392"/><path d="M1.488 2.102c-.586 0-1.062.476-1.062 1.062v16.867c0 .59.476 1.067 1.062 1.067h20.84c.586 0 1.063-.477 1.063-1.067V3.164c0-.586-.477-1.062-1.063-1.062zm0 .14h20.84c.512 0 .922.41.922.922v16.867a.92.92 0 0 1-.922.926H1.488a.92.92 0 0 1-.922-.926V3.164c0-.512.41-.922.922-.922zm0 0" fill="#212121"/><path d="M4.96 18.047a.991.991 0 0 0-.991.992v1.988h15.875V19.04a.991.991 0 0 0-.992-.992zm0 0" fill="#9ccc65"/><path d="M1.488 20.965a.991.991 0 0 1-.992-.992v-.125c0 .55.442.992.992.992h20.84a.991.991 0 0 0 .992-.992v.125a.994.994 0 0 1-.992.992zm0 0" fill-opacity=".196"/><path d="M4.96 18.121a.989.989 0 0 0-.991.992v.125c0-.55.441-.992.992-.992h13.89c.551 0 .993.442.993.992v-.125a.989.989 0 0 0-.992-.992zm0 0" fill="#e6e6e6" fill-opacity=".392"/><path d="M399.962 1454.98c-44.405 0-79.993 35.901-79.993 79.992v160.3h1279.878v-160.3c0-44.09-35.587-79.993-79.992-79.993zm0 0" transform="scale(.0124)" fill="url(#g)" stroke-width="11.339" stroke-linecap="round" stroke="#212121"/><path d="M5.457 19.04a.497.497 0 1 0 .001.993.497.497 0 0 0-.001-.994zm1.984 0a.497.497 0 1 0 .002.993.497.497 0 0 0-.002-.994zm1.985 0a.497.497 0 1 0 .001.993.497.497 0 0 0-.001-.994zm8.93 0a.497.497 0 1 0 0 .993.497.497 0 0 0 0-.994zm0 0" fill="#7cb342"/><path d="M116.406 191.128c-5.833 0-10.583 4.75-10.583 10.582 0 5.916 4.75 10.583 10.583 10.583a10.544 10.544 0 0 0 10.582-10.583c0-5.833-4.75-10.582-10.582-10.582zm42.329 0c-5.833 0-10.582 4.75-10.582 10.582 0 5.916 4.75 10.583 10.582 10.583 5.916 0 10.582-4.667 10.582-10.583a10.544 10.544 0 0 0-10.582-10.582zm42.33 0c-5.834 0-10.583 4.75-10.583 10.582 0 5.916 4.75 10.583 10.582 10.583 5.916 0 10.582-4.667 10.582-10.583a10.544 10.544 0 0 0-10.582-10.582zm190.48 0c-5.832 0-10.581 4.75-10.581 10.582 0 5.916 4.75 10.583 10.582 10.583 5.916 0 10.582-4.667 10.582-10.583a10.544 10.544 0 0 0-10.582-10.582zm0 0" transform="matrix(.04688 0 0 .04688 0 10.08)" fill="url(#h)" stroke-width="3" stroke-linecap="round" stroke="#212121"/></svg>
